assets/svg/1F456.svg

<svg xmlns="http://www.w3.org/2000/svg" viewBox="0 0 64 64" enable-background="new 0 0 64 64"><g transform="translate(10)" fill-rule="evenodd"><g fill="#28316b"><path d="m35.445.511l2.927 10.01 2.74 51.668c0 0-5.665 3.281-13.161 1.084-1.256-.369-2.176-.659-2.834-.889.002-.012.002-.025.006-.035.039-.292-.006-.572-.102-.839l-2.37-40.714c0 0-2.925-1.264-3.84 0v-20.288h16.634"/><path d="m5.667.511l-2.927 10.01-2.74 51.668c0 0 5.665 3.281 13.161 1.084 1.256-.369 2.176-.659 2.833-.889 0-.012 0-.025-.004-.035-.036-.292.004-.572.102-.839l2.37-40.714c0 0 2.924-1.264 3.84 0v-20.287h-16.635"/></g><g fill="#5e70b4"><path d="m3.328 62.19l2.743-51.67 2.922-10.01h-1.737l-2.922 10.01-2.742 51.67c0 0 3.571 2.063 8.791 1.818-4.258-.2-7.05-1.818-7.05-1.818"/><path d="m37.666 62.19l-2.742-51.67-2.924-10.01h1.737l2.925 10.01 2.742 51.67c0 0-3.571 2.063-8.793 1.818 4.258-.201 7.05-1.819 7.05-1.819"/><path d="m23.05.511c0 0 .739 9.55-.739 11.267l-.462-.429c0 0 1.307-3.26.652-10.467l.549-.371"/></g></g></svg>

<?xml version="1.0" encoding="UTF-8" standalone="no"?>
<!-- Generator: Adobe Illustrator 16.0.0, SVG Export Plug-In . SVG Version: 6.00 Build 0)  -->

<svg
   xmlns:dc="http://purl.org/dc/elements/1.1/"
   xmlns:cc="http://creativecommons.org/ns#"
   xmlns:rdf="http://www.w3.org/1999/02/22-rdf-syntax-ns#"
   xmlns:svg="http://www.w3.org/2000/svg"
   xmlns="http://www.w3.org/2000/svg"
   xmlns:sodipodi="http://sodipodi.sourceforge.net/DTD/sodipodi-0.dtd"
   xmlns:inkscape="http://www.inkscape.org/namespaces/inkscape"
   version="1.1"
   id="Layer_1"
   x="0px"
   y="0px"
   width="64px"
   height="64px"
   viewBox="0 0 64 64"
   enable-background="new 0 0 64 64"
   xml:space="preserve"
   inkscape:version="0.48.5 r10040"
   sodipodi:docname="1F456.svg"
   inkscape:export-filename="D:\TESTINGEMOJI\SVGTEST\1F456.png"
   inkscape:export-xdpi="90"
   inkscape:export-ydpi="90"><metadata
   id="metadata4345"><rdf:RDF><cc:Work
       rdf:about=""><dc:format>image/svg+xml</dc:format><dc:type
         rdf:resource="http://purl.org/dc/dcmitype/StillImage" /><dc:title></dc:title></cc:Work></rdf:RDF></metadata><defs
   id="defs4343" /><sodipodi:namedview
   pagecolor="#ffffff"
   bordercolor="#666666"
   borderopacity="1"
   objecttolerance="10"
   gridtolerance="10"
   guidetolerance="10"
   inkscape:pageopacity="0"
   inkscape:pageshadow="2"
   inkscape:window-width="640"
   inkscape:window-height="480"
   id="namedview4341"
   showgrid="false"
   inkscape:zoom="3.6875"
   inkscape:cx="32"
   inkscape:cy="32"
   inkscape:window-x="353"
   inkscape:window-y="345"
   inkscape:window-maximized="0"
   inkscape:current-layer="Layer_1" />
<g
   id="g4329"
   transform="translate(10,0)">
	<path
   clip-rule="evenodd"
   d="m 35.445,0.511 2.927,10.013 2.74,51.668 c 0,0 -5.665,3.281 -13.161,1.084 -1.256,-0.369 -2.176,-0.659 -2.834,-0.889 0.002,-0.012 0.002,-0.025 0.006,-0.035 0.039,-0.292 -0.006,-0.572 -0.102,-0.839 l -2.37,-40.714 c 0,0 -2.925,-1.264 -3.84,0 V 0.511 h 16.634 z"
   id="path4331"
   inkscape:connector-curvature="0"
   style="fill:#28316b;fill-rule:evenodd" />
	<path
   clip-rule="evenodd"
   d="M 5.667,0.511 2.74,10.523 0,62.191 c 0,0 5.665,3.281 13.161,1.084 1.256,-0.369 2.176,-0.659 2.833,-0.889 0,-0.012 0,-0.025 -0.004,-0.035 -0.036,-0.292 0.004,-0.572 0.102,-0.839 l 2.37,-40.714 c 0,0 2.924,-1.264 3.84,0 V 0.511 H 5.667 z"
   id="path4333"
   inkscape:connector-curvature="0"
   style="fill:#28316b;fill-rule:evenodd" />
	<path
   clip-rule="evenodd"
   d="M 3.328,62.193 6.071,10.523 8.993,0.511 H 7.256 L 4.334,10.523 1.592,62.193 c 0,0 3.571,2.063 8.791,1.818 -4.258,-0.2 -7.055,-1.818 -7.055,-1.818 z"
   id="path4335"
   inkscape:connector-curvature="0"
   style="fill:#5e70b4;fill-rule:evenodd" />
	<path
   clip-rule="evenodd"
   d="M 37.666,62.193 34.924,10.523 32,0.511 h 1.737 l 2.925,10.013 2.742,51.67 c 0,0 -3.571,2.063 -8.793,1.818 4.258,-0.201 7.055,-1.819 7.055,-1.819 z"
   id="path4337"
   inkscape:connector-curvature="0"
   style="fill:#5e70b4;fill-rule:evenodd" />
	<path
   clip-rule="evenodd"
   d="m 23.045,0.511 c 0,0 0.739,9.55 -0.739,11.267 l -0.462,-0.429 c 0,0 1.307,-3.26 0.652,-10.467 l 0.549,-0.371 z"
   id="path4339"
   inkscape:connector-curvature="0"
   style="fill:#5e70b4;fill-rule:evenodd" />
</g>
</svg>
